X: 27108
T: Miss Mahany's Favourite
R: polka
M: 2/4
K: Gmajor
dB GB|c/B/A GD|E/F/G AF|GA Bc|dB GB|c/B/A GD|E/F/G AF|G2 G2:|
BA B/c/d|fd gd|e/f/g af|gf ed|BA B/c/d|fd gd|e/f/g ef|1 g2 g2:|2 g2 a2||
b/a/g a/g/f|g/f/e dB|c/B/A B/A/G|AF D2|dB GB|c/B/A GD|E/F/G AF|1 GB dg:|2 E/F/G AF G2 G2||

